logo/resolv.svg

<svg fill="none" height="64" viewBox="0 0 64 64" width="64" xmlns="http://www.w3.org/2000/svg"><rect fill="#fdefdf" height="64" rx="31.9976" width="64" x=".087708"/><path d="m32.0898 53.322-21.3198.0125 10.6661-10.6626z" fill="#aebfc3"/><path d="m32.0847 10.666c-11.7808 0-21.3305 9.5498-21.3305 21.3288h21.3305z" fill="#6696ae"/><path d="m10.7536 31.9951 21.3359 21.327h21.3181l.0089-.0071-21.3324-21.3199z" fill="#8aaab8"/><g stroke="#f6e8d7" stroke-linecap="round" stroke-linejoin="round" stroke-width="1.06662"><path d="m32.0898 53.322-21.3198.0125 10.6661-10.6626z"/><path d="m32.0847 10.666c-11.7808 0-21.3305 9.5498-21.3305 21.3288h21.3305z"/><path d="m10.7536 31.9951 21.3359 21.327h21.3181l.0089-.0071-21.3324-21.3199z"/></g><path d="m53.4171 31.9948c0 5.8913-2.3821 11.2208-6.2433 15.0801l-15.089-15.0801v-21.3288c11.7825 0 21.3323 9.5498 21.3323 21.3288z" fill="#4281a4"/><path d="m32.0903 11.2285c4.1098 0 8.1272 1.2187 11.5444 3.502s6.0805 5.5286 7.6533 9.3255c1.5727 3.7969 1.9842 7.975 1.1824 12.0058s-2.7808 7.7334-5.6869 10.6394l-14.6932-14.6933z" fill="#4281a4"/><path d="m53.4171 31.9948c0 5.8913-2.3821 11.2208-6.2433 15.0801l-15.089-15.0801v-21.3288c11.7825 0 21.3305 9.5498 21.3305 21.3288z" stroke="#f6e8d7" stroke-linecap="round" stroke-linejoin="round" stroke-width="1.06662"/></svg>

<svg width="64" height="64" viewBox="0 0 64 64" fill="none" xmlns="http://www.w3.org/2000/svg">
  <rect x="0.0877075" width="64" height="64" rx="31.9976" fill="#FDEFDF" />
  <path d="M32.0898 53.322L10.77 53.3345L21.4361 42.6719L32.0898 53.322Z" fill="#AEBFC3" />
  <path d="M32.0847 10.666C20.3039 10.666 10.7542 20.2158 10.7542 31.9948H32.0847V10.666Z" fill="#6696AE" />
  <path d="M10.7536 31.9951L32.0895 53.3221H53.4076L53.4165 53.315L32.0841 31.9951H10.7536Z" fill="#8AAAB8" />
  <path d="M32.0898 53.322L10.77 53.3345L21.4361 42.6719L32.0898 53.322Z" stroke="#F6E8D7" stroke-width="1.06662" stroke-linecap="round" stroke-linejoin="round" />
  <path d="M32.0847 10.666C20.3039 10.666 10.7542 20.2158 10.7542 31.9948H32.0847V10.666Z" stroke="#F6E8D7" stroke-width="1.06662" stroke-linecap="round" stroke-linejoin="round" />
  <path d="M10.7536 31.9951L32.0895 53.3221H53.4076L53.4165 53.315L32.0841 31.9951H10.7536Z" stroke="#F6E8D7" stroke-width="1.06662" stroke-linecap="round" stroke-linejoin="round" />
  <path d="M53.4171 31.9948C53.4171 37.8861 51.035 43.2156 47.1738 47.0749L32.0848 31.9948V10.666C43.8673 10.666 53.4171 20.2158 53.4171 31.9948Z" fill="#4281A4" />
  <path d="M32.0903 11.2285C36.2001 11.2285 40.2175 12.4472 43.6347 14.7305C47.0519 17.0138 49.7152 20.2591 51.288 24.056C52.8607 27.8529 53.2722 32.031 52.4704 36.0618C51.6686 40.0926 49.6896 43.7952 46.7835 46.7012L32.0903 32.0079V11.2285Z" fill="#4281A4" />
  <path d="M53.4171 31.9948C53.4171 37.8861 51.035 43.2156 47.1738 47.0749L32.0848 31.9948V10.666C43.8673 10.666 53.4153 20.2158 53.4153 31.9948H53.4171Z" stroke="#F6E8D7" stroke-width="1.06662" stroke-linecap="round" stroke-linejoin="round" />
</svg>
